svg/pregnant_negative.svg

<svg width="48" height="48" viewBox="0 0 48 48" fill="none" xmlns="http://www.w3.org/2000/svg">
<path fill-rule="evenodd" clip-rule="evenodd" d="M0 0V47.9994H47.9994V0H0ZM23.9997 4.05465C26.4217 4.05465 28.3866 6.01772 28.3866 8.43939C28.3866 10.8609 26.4217 12.8238 23.9997 12.8238C21.5777 12.8238 19.6148 10.8609 19.6148 8.43939C19.6148 6.01772 21.5777 4.05465 23.9997 4.05465ZM23.5637 13.9038L24.4257 13.9058H28.4196V13.9138C29.1406 13.9228 29.8286 14.3228 30.1676 15.0178L35.0136 24.9487C35.4926 25.9317 35.0896 27.1077 34.1066 27.5877C33.1236 28.0676 31.9456 27.6647 31.4666 26.6817L28.4196 20.4387C28.4196 25.1537 30.9266 26.4857 31.2026 33.0616H28.4196V41.9725C28.4196 43.0655 27.5387 43.9464 26.4447 43.9464C25.3517 43.9464 24.4707 43.0655 24.4707 41.9725V33.0616H23.5197V41.9725C23.5197 43.0655 22.6387 43.9464 21.5447 43.9464C20.4507 43.9464 19.5718 43.0655 19.5718 41.9725V33.0616H16.7948C17.1058 26.4657 19.6458 24.6947 19.5718 20.4527L16.5328 26.6817C16.0538 27.6647 14.8768 28.0676 13.8948 27.5877C12.9118 27.1077 12.5048 25.9317 12.9838 24.9487L17.8318 15.0198C18.1688 14.3278 18.8548 13.9328 19.5718 13.9178V13.9058L23.5637 13.9038ZM23.9997 22.3747C21.2417 22.3747 19.0058 24.6107 19.0058 27.3687C19.0058 30.1266 21.2417 32.3626 23.9997 32.3626C26.7577 32.3626 28.9936 30.1266 28.9936 27.3687C28.9936 24.6107 26.7577 22.3747 23.9997 22.3747ZM23.9997 23.0607C25.1423 23.0608 26.2381 23.5147 27.0461 24.3225C27.8541 25.1304 28.3083 26.2261 28.3086 27.3687C28.3085 28.5114 27.8545 29.6074 27.0465 30.4154C26.2384 31.2235 25.1425 31.6775 23.9997 31.6776C22.8569 31.6775 21.761 31.2235 20.9529 30.4154C20.1449 29.6074 19.6909 28.5114 19.6908 27.3687C19.6911 26.2261 20.1453 25.1304 20.9533 24.3225C21.7613 23.5147 22.8571 23.0608 23.9997 23.0607ZM23.6817 23.3157C23.6017 23.2877 23.4977 23.3127 23.4567 23.4297C23.3457 23.6747 23.1557 23.8477 23.0717 24.1947C22.9657 24.6967 23.8257 24.7387 24.0937 24.7377C24.8677 24.7647 25.1467 25.2487 24.3517 25.3197C23.6907 25.3817 23.0117 25.3987 22.8787 26.7577C22.8617 26.9567 22.9537 27.3087 23.1127 27.7577C23.1657 28.0516 23.0777 28.3906 22.9017 28.7576C22.8127 28.7456 22.7467 28.7146 22.7297 28.6406C22.7457 28.3236 22.8097 28.0556 22.6837 27.5977C22.5597 27.1527 22.2567 26.9407 21.9487 26.8867C21.3317 26.7587 20.7847 26.6427 20.2907 26.8067C19.7698 27.0017 19.9368 27.7737 20.3847 27.7827L20.9337 27.7987C21.3137 27.8057 21.5197 27.9726 21.3217 28.5076L21.0547 29.2846C20.8357 29.9536 21.5727 30.6846 22.5387 30.7696C23.5157 30.7466 24.0797 30.3096 24.8417 30.0716C25.5707 29.6686 25.4357 29.3816 25.4337 29.1246C25.3117 28.7686 25.2947 28.6396 25.0307 28.2356C24.9277 28.1266 24.8807 28.0966 24.7437 28.0057C24.4117 27.6377 24.9497 27.4047 25.3547 26.9237C25.5657 26.6247 25.2087 26.2747 24.7947 26.3957C24.4447 26.5107 24.2617 26.7227 23.9057 27.0917C23.7027 27.3147 23.4277 27.8376 23.8047 28.2786C23.9097 28.4816 23.7677 28.5776 23.4077 28.6926C23.2907 28.7236 23.2057 28.7266 23.1127 28.7396C23.2997 28.4286 23.3467 28.1106 23.3047 27.7887C23.2247 27.4497 23.0857 27.1267 23.0797 26.7697C23.1947 25.4007 24.0157 25.5897 24.6657 25.4837C24.9747 25.4727 25.6367 24.7397 24.2167 24.4817C23.7707 24.4027 23.3307 24.4357 23.4057 24.1427C23.4697 23.8867 23.6437 23.7267 23.7557 23.5287C23.8167 23.4287 23.7607 23.3447 23.6817 23.3157ZM26.7397 26.7767C26.4247 26.7767 26.1107 26.8977 25.8707 27.1387C25.3907 27.6187 25.3907 28.3986 25.8707 28.8786C26.3517 29.3586 27.1307 29.3576 27.6107 28.8766C28.0906 28.3956 28.0896 27.6167 27.6087 27.1367C27.3687 26.8967 27.0547 26.7767 26.7397 26.7767Z" fill="#333333" fill-opacity="0.99505"/>
</svg>

<?xml version="1.0" encoding="UTF-8" standalone="no"?>
<!-- Created with Inkscape (http://www.inkscape.org/) -->
<svg id="svg8" xmlns:rdf="http://www.w3.org/1999/02/22-rdf-syntax-ns#" xmlns="http://www.w3.org/2000/svg" xmlns:osb="http://www.openswatchbook.org/uri/2009/osb" height="48" width="48" version="1.1" xmlns:cc="http://creativecommons.org/ns#" viewBox="0 0 12.7 12.7" xmlns:dc="http://purl.org/dc/elements/1.1/">
 <title id="title4753">UIO-icon</title>
 <metadata id="metadata5">
  <rdf:RDF>
   <cc:Work rdf:about="">
    <dc:format>image/svg+xml</dc:format>
    <dc:type rdf:resource="http://purl.org/dc/dcmitype/StillImage"/>
    <dc:title>UIO-icon</dc:title>
    <dc:creator>
     <cc:Agent>
      <dc:title>Joaquín Urbano</dc:title>
     </cc:Agent>
    </dc:creator>
    <dc:rights>
     <cc:Agent>
      <dc:title>GPL</dc:title>
     </cc:Agent>
    </dc:rights>
   </cc:Work>
  </rdf:RDF>
 </metadata>
 <g id="layer1" transform="translate(0,-284.3)">
  <path id="rect4846" d="m0 0v48h48v-48h-48zm24 4.0547c2.422 0 4.387 1.9631 4.387 4.3848 0 2.4215-1.965 4.3845-4.387 4.3845s-4.385-1.963-4.385-4.3845c0-2.4217 1.963-4.3848 4.385-4.3848zm-0.436 9.8493l0.862 0.002h3.994v0.008c0.721 0.009 1.409 0.409 1.748 1.104l4.846 9.931c0.479 0.983 0.076 2.159-0.907 2.639s-2.161 0.077-2.64-0.906l-3.047-6.243c0 4.715 2.507 6.047 2.783 12.623h-2.783v8.911c0 1.093-0.881 1.974-1.975 1.974-1.093 0-1.974-0.881-1.974-1.974v-8.911h-0.951v8.911c0 1.093-0.881 1.974-1.975 1.974s-1.973-0.881-1.973-1.974v-8.911h-2.777c0.311-6.596 2.851-8.367 2.777-12.609l-3.039 6.229c-0.479 0.983-1.656 1.386-2.638 0.906-0.983-0.48-1.39-1.656-0.911-2.639l4.848-9.929c0.337-0.692 1.023-1.087 1.74-1.102v-0.012l3.992-0.002zm0.436 8.471c-2.758 0-4.994 2.236-4.994 4.994s2.236 4.994 4.994 4.994 4.994-2.236 4.994-4.994-2.236-4.994-4.994-4.994zm0 0.686a4.3094 4.3094 0 0 1 4.309 4.308 4.3094 4.3094 0 0 1 -4.309 4.309 4.3094 4.3094 0 0 1 -4.309 -4.309 4.3094 4.3094 0 0 1 4.309 -4.308zm-0.318 0.255c-0.08-0.028-0.184-0.003-0.225 0.114-0.111 0.245-0.301 0.418-0.385 0.765-0.106 0.502 0.754 0.544 1.022 0.543 0.774 0.027 1.053 0.511 0.258 0.582-0.661 0.062-1.34 0.079-1.473 1.438-0.017 0.199 0.075 0.551 0.234 1 0.053 0.294-0.035 0.633-0.211 1-0.089-0.012-0.155-0.043-0.172-0.117 0.016-0.317 0.08-0.585-0.046-1.043-0.124-0.445-0.427-0.657-0.735-0.711-0.617-0.128-1.164-0.244-1.658-0.08-0.521 0.195-0.354 0.967 0.094 0.976l0.549 0.016c0.38 0.007 0.586 0.174 0.388 0.709l-0.267 0.777c-0.219 0.669 0.518 1.4 1.484 1.485 0.977-0.023 1.541-0.46 2.303-0.698 0.729-0.403 0.594-0.69 0.592-0.947-0.122-0.356-0.139-0.485-0.403-0.889-0.103-0.109-0.15-0.139-0.287-0.23-0.332-0.368 0.206-0.601 0.611-1.082 0.211-0.299-0.146-0.649-0.56-0.528-0.35 0.115-0.533 0.327-0.889 0.696-0.203 0.223-0.478 0.746-0.101 1.187 0.105 0.203-0.037 0.299-0.397 0.414-0.117 0.031-0.202 0.034-0.295 0.047 0.187-0.311 0.234-0.629 0.192-0.951-0.08-0.339-0.219-0.662-0.225-1.019 0.115-1.369 0.936-1.18 1.586-1.286 0.309-0.011 0.971-0.744-0.449-1.002-0.446-0.079-0.886-0.046-0.811-0.339 0.064-0.256 0.238-0.416 0.35-0.614 0.061-0.1 0.005-0.184-0.074-0.213zm3.058 3.461c-0.315 0-0.629 0.121-0.869 0.362-0.48 0.48-0.48 1.26 0 1.74 0.481 0.48 1.26 0.479 1.74-0.002s0.479-1.26-0.002-1.74c-0.24-0.24-0.554-0.36-0.869-0.36z" fill-rule="evenodd" fill-opacity=".99505" transform="matrix(.26458 0 0 .26458 0 284.3)" fill="#333"/>
 </g>
</svg>
